!!!OTL: Bay of Biscay Oh
!!!ONM: 52.
**kern
*clefG2
*k[b-]
*F:
*M4/4
*MM80
{4c
=1
4f
4c
4f
4g
=2
4f
2c
4b-
=3
4a
4g
4a
4b-
=4
2.cc}
{4a
=5
4dd
4cc
4a
4f
=6
(4g
4f)
4g
4a
=7
4g
4f
4g
4a
=8
2.g}
{4f
=9
4a
4b-
4cc
4dd
=10
4cc
2a
4f
=11
4a
4g
4cc
4dd
=12
(4cc
4a)}
{4f
4g
=13
(8a
4.g)
4a
4cc
=14
(8dd
4.cc)
4.g
8g
=15
4a
4cc
4g
4a
=16
2f
4r}
==
*-
!!!CNT: Folksongs of Maritime Canada
!!!MRD: 1928///-1932///
!!!OCL: Helen Creighton
!!!YOR: Songs and Ballads from Nova Scotia
!!!PPR: J.M. Dent & Sons, Limited
!!!PPP: Toronto, Canada
!!!PDT: 1932///
!!!reprint: Dover Publications, 1992: ISBN 0-486-21703-5
!!!ENC1: Craig Stuart Sapp (music and bibliographic data)                       
!!!ENC2: Marcus Pearce (phrase markings and key designations)                   
!!!ENC3: Darrell Conklin (phrase markings and key designations)   
!!!END: 2002/04/10/
!!!EEV: 2004/06/05
!!!MPN: Mr. Ben Henneberry
!!!PPG: 105
!!!EFL: 53/152
!!!ARE: Canada; Nova Scotia
!!!verses: 7
!!!VTS: 3782670994
